svg/seed_plus_outline.svg

<svg xmlns="http://www.w3.org/2000/svg" viewBox="0 0 24 24"><path d="M17.2 5c.6 0 1.2 0 1.7.1.14 1.6.18 4.32-.72 6.9.71 0 1.38.17 2 .41 1.46-4.51.52-9.11.52-9.11S19.3 3 17.2 3c-5.5 0-15.6 2.1-14 17.8 1.1.1 2.2.2 3.2.2 2.35 0 4.34-.31 6-.84-.24-.62-.4-1.29-.4-1.99-1.59.55-3.47.83-5.6.83H5.1c-.2-4.6.7-8.2 2.8-10.5C10.4 5.6 14.4 5 17.2 5M17 7C7 7 7 17 7 17 11 9 17 7 17 7m0 10h-3v2h3v3h2v-3h3v-2h-3v-3h-2z"/></svg>

<svg xmlns="http://www.w3.org/2000/svg" id="mdi-seed-plus-outline" viewBox="0 0 24 24"><path d="M17.2 5C17.8 5 18.4 5 18.9 5.1C19.04 6.7 19.08 9.42 18.18 12C18.89 12 19.56 12.17 20.18 12.41C21.64 7.9 20.7 3.3 20.7 3.3S19.3 3 17.2 3C11.7 3 1.6 5.1 3.2 20.8C4.3 20.9 5.4 21 6.4 21C8.75 21 10.74 20.69 12.4 20.16C12.16 19.54 12 18.87 12 18.17C10.41 18.72 8.53 19 6.4 19H5.1C4.9 14.4 5.8 10.8 7.9 8.5C10.4 5.6 14.4 5 17.2 5M17 7C7 7 7 17 7 17C11 9 17 7 17 7M17 17H14V19H17V22H19V19H22V17H19V14H17V17Z" /></svg>
